X:59
T:Drink to Me Only With Thine Eyes
% Four-part piano arrangement for standard notation.
C:Ben Jonson/Old English Air
S:Source "The One Hundred and One Best Songs" - The Cable Company - 1919 - Chicago, Illinois
M:6/8
L:1/8
Q:1/4=70
%%staves [(1 2) (3 4)]
K:Eb
V:1 clef=treble
G G G A2 A | BA G FG A | BE A G2 F | E3-E2 z |
w:1.~Drink to me on-ly with* thine eyes,* And I* will pledge with mine;*
w:2.~I sent thee late a ro\-* sy wreath,* Not so* much hon-'ring thee*
V:2 clef=treble
E E E D2 D | ED E FE D | E2 E E2 D | E3-E2 z |
V:3 clef=bass
%%MIDI transpose -24
b b b b2 b | b2 b b2 b | b2 c' b2 a | g3-g2 z |
V:4 clef=bass
%%MIDI transpose -24
e e e f2 f | gf e de f | g2 a b2 B | e3-e2 z |
V:1
G G G A2 A | BA G FG A | BE A G2 F | E3-E2 B |
w:Or leave a kiss with-in* the cup,* And I'll* not ask for wine;* The
w:As giv-ing it a hope* that there* It could* not with-ered be;* But
V:2
E E E D2 D | ED E FE D | E2 E E2 D | E3-E2 E |
V:3
b b b b2 b | b2 b b2 b | b2 c' b2 a | g3-g2 g |
V:4
e e e f2 f | gf e de f | g2 a b2 B | e3-e2 e |
V:1
BG B e2 B | BG B B2 x B | c2 B BA G | (G3 F2) z |
w:thirst* that from the soul* doth rise, Doth ask a drink* di-vine;*
w:thou* there-on didst on\-* ly breathe, And sent'st it back* to me,*
V:2
E2 G G2 G | GE E GF x E | E2 E D2 E | (E3 D2) z |
V:3
gb g b2 b | b2 b d'2 x b | a2 b b2 b | b3-b2 z |
V:4
e2 e e2 e | e2 g ba x g | a2 g f2 e | B3-B2 z |
V:1
G G G A2 A | BA G (FG A) | (B E) A G2 F | E3-E2 z |]
w:But might I of Jove's nec\-* tar sip,* I would* not change for thine.*
w:Since when it grows and smells,* I swear,** Not of it-self, but thee.*
V:2
E E E D2 D | ED E E2-E | E - E E E2 D | E3-E2 z |]
V:3
b b b b2 b | b2 b (c'b a) | g - g c' b2 a | g3-g2 z |]
V:4
e e e f2 f | gf e (ag f) | B - B B B2 B | e3-e2 z |]

